assets/Clinking glasses/Flat/clinking_glasses_flat.svg

<svg width="32" height="32" viewBox="0 0 32 32" fill="none" xmlns="http://www.w3.org/2000/svg">
<path d="M10.7015 20.0235C12.389 20.1665 14.0164 19.1405 14.5647 17.4613L17.9947 6.94128C18.1047 6.59128 17.9147 6.22126 17.5747 6.11126L11.7247 4.20129C11.3747 4.09129 11.0047 4.28127 10.8947 4.62127L7.46472 15.1413C6.91505 16.8246 7.62674 18.6186 9.0803 19.497L6.62473 27.0212L4.08472 26.1913C3.65472 26.0513 3.19473 26.2913 3.04473 26.7313C2.89473 27.1713 3.13473 27.6413 3.57473 27.7812L10.2647 29.9612C10.7047 30.1112 11.1747 29.8712 11.3147 29.4312C11.4647 28.9912 11.2247 28.5213 10.7847 28.3813L8.24473 27.5512L10.7015 20.0235Z" fill="#83CBFF"/>
<path d="M21.798 17.8534C20.1104 17.9964 18.4831 16.9705 17.9348 15.2913L14.5048 4.77123C14.3948 4.42123 14.5848 4.05125 14.9248 3.94125L20.7748 2.03124C21.1248 1.92124 21.4948 2.11126 21.6048 2.45126L25.0348 12.9712C25.5844 14.6546 24.8727 16.4486 23.4191 17.327L25.8747 24.8513L28.4147 24.0212C28.8547 23.8812 29.3247 24.1212 29.4547 24.5612C29.6047 25.0012 29.3647 25.4712 28.9247 25.6112L22.2347 27.7913C21.7947 27.9413 21.3247 27.7013 21.1847 27.2613C21.0347 26.8213 21.2747 26.3512 21.7147 26.2112L24.2547 25.3813L21.798 17.8534Z" fill="#AEDDFF"/>
<path d="M10.2048 18.7912C11.7748 19.3012 13.4648 18.4412 13.9848 16.8712L15.7048 11.5912C15.8148 11.2412 15.5548 10.8812 15.1848 10.8812L9.98478 10.9712C9.75478 10.9712 9.55478 11.1212 9.48478 11.3412L8.28478 15.0112C7.77478 16.5812 8.63478 18.2712 10.2048 18.7912Z" fill="#FFCE7C"/>
<path d="M18.6347 4.96121C18.6347 5.41961 18.2631 5.79123 17.8047 5.79123C17.3463 5.79123 16.9747 5.41961 16.9747 4.96121C16.9747 4.50282 17.3463 4.13123 17.8047 4.13123C18.2631 4.13123 18.6347 4.50282 18.6347 4.96121Z" fill="#FFDEA7"/>
<path d="M20.1947 7.11127C20.1947 7.42055 19.944 7.6713 19.6347 7.6713C19.3254 7.6713 19.0747 7.42055 19.0747 7.11127C19.0747 6.80199 19.3254 6.55127 19.6347 6.55127C19.944 6.55127 20.1947 6.80199 20.1947 7.11127Z" fill="#FFDEA7"/>
<path d="M19.8648 5.29123C20.047 5.29123 20.1948 5.14347 20.1948 4.96121C20.1948 4.77896 20.047 4.63123 19.8648 4.63123C19.6825 4.63123 19.5348 4.77896 19.5348 4.96121C19.5348 5.14347 19.6825 5.29123 19.8648 5.29123Z" fill="#FFDEA7"/>
<path d="M18.5148 14.7013C19.0348 16.2713 20.7248 17.1313 22.2948 16.6213C23.8648 16.1013 24.7248 14.4113 24.2148 12.8513L23.1748 9.67129C23.0148 9.16129 22.5348 8.84127 22.0048 8.87127C20.5948 8.96127 19.2048 8.51128 18.1248 7.60128L17.2948 6.90127C16.7748 6.46127 16.0048 6.98128 16.2148 7.63128L18.5148 14.7013Z" fill="#FFDEA7"/>
</svg>

<svg xmlns="http://www.w3.org/2000/svg" width="32" height="32" fill="none"><path fill="#83CBFF" d="M10.701 20.023a3.737 3.737 0 0 0 3.864-2.562l3.43-10.52a.661.661 0 0 0-.42-.83l-5.85-1.91a.661.661 0 0 0-.83.42l-3.43 10.52a3.738 3.738 0 0 0 1.615 4.356l-2.455 7.524-2.54-.83c-.43-.14-.89.1-1.04.54-.15.44.09.91.53 1.05l6.69 2.18a.82.82 0 0 0 1.05-.53.82.82 0 0 0-.53-1.05l-2.54-.83 2.457-7.527Z"/><path fill="#AEDDFF" d="M21.798 17.853a3.737 3.737 0 0 1-3.863-2.562l-3.43-10.52c-.11-.35.08-.72.42-.83l5.85-1.91c.35-.11.72.08.83.42l3.43 10.52a3.738 3.738 0 0 1-1.616 4.356l2.456 7.524 2.54-.83c.44-.14.91.1 1.04.54a.82.82 0 0 1-.53 1.05l-6.69 2.18a.82.82 0 0 1-1.05-.53.82.82 0 0 1 .53-1.05l2.54-.83-2.457-7.528Z"/><path fill="#FFCE7C" d="M10.205 18.791c1.57.51 3.26-.35 3.78-1.92l1.72-5.28a.546.546 0 0 0-.52-.71l-5.2.09c-.23 0-.43.15-.5.37l-1.2 3.67c-.51 1.57.35 3.26 1.92 3.78Z"/><path fill="#FFDEA7" d="M18.635 4.961a.83.83 0 1 1-1.66 0 .83.83 0 0 1 1.66 0ZM20.195 7.111a.56.56 0 1 1-1.12 0 .56.56 0 0 1 1.12 0ZM19.865 5.291a.33.33 0 1 0 0-.66.33.33 0 0 0 0 .66Z"/><path fill="#FFDEA7" d="M18.515 14.701a3.008 3.008 0 0 0 3.78 1.92c1.57-.52 2.43-2.21 1.92-3.77l-1.04-3.18c-.16-.51-.64-.83-1.17-.8-1.41.09-2.8-.36-3.88-1.27l-.83-.7c-.52-.44-1.29.08-1.08.73l2.3 7.07Z"/></svg>
